svgs/sharp-regular/wallet.svg

<svg xmlns="http://www.w3.org/2000/svg" viewBox="0 0 512 512"><!--! Font Awesome Pro 6.6.0 by @fontawesome - https://fontawesome.com License - https://fontawesome.com/license (Commercial License) Copyright 2024 Fonticons, Inc. --><path d="M24 32L0 32 0 56 0 456l0 24 24 0 464 0 24 0 0-24 0-304 0-24-24 0-368 0-24 0 0 48 24 0 344 0 0 256L48 432 48 80l408 0 24 0 0-48-24 0L24 32zM384 336a32 32 0 1 0 0-64 32 32 0 1 0 0 64z"/></svg>

<svg xmlns="http://www.w3.org/2000/svg" viewBox="0 0 512 512"><!--! Font Awesome Pro 6.4.2 by @fontawesome - https://fontawesome.com License - https://fontawesome.com/license (Commercial License) Copyright 2023 Fonticons, Inc. --><path d="M24 32H0V56 456v24H24 488h24V456 152 128H488 120 96v48h24H464V432H48V80H456h24V32H456 24zM384 336a32 32 0 1 0 0-64 32 32 0 1 0 0 64z"/></svg>
